ui/StatusQ/src/assets/img/icons/invite-users.svg

<svg fill="none" height="24" viewBox="0 0 24 24" width="24" xmlns="http://www.w3.org/2000/svg"><g fill="#000"><path d="m16 10.75c0 .4142.3383.7434.7469.8117 2.1298.3558 3.7531 2.2075 3.7531 4.4383 0 2.4853-2.0147 4.5-4.5 4.5h-8c-2.48528 0-4.5-2.0147-4.5-4.5 0-2.2308 1.62331-4.0825 3.75314-4.4383.40855-.0683.74686-.3975.74686-.8117s-.33747-.75492-.74851-.7038c-2.96046.3684-5.25149 2.8936-5.25149 5.9538 0 3.3137 2.68629 6 6 6h8c3.3137 0 6-2.6863 6-6 0-3.0602-2.291-5.5854-5.2515-5.9538-.411-.05112-.7485.2896-.7485.7038z"/><path d="m12.75 6.01777c0-.44545.5386-.66854.8536-.35356l1.8661 1.86612c.2929.29289.7677.29289 1.0606 0s.2929-.76777 0-1.06066l-4-4c-.2929-.29289-.7677-.29289-1.0606 0l-4.00003 4c-.29289.29289-.29289.76777 0 1.06066s.76777.29289 1.06066 0l1.86607-1.86612c.315-.31498.8536-.09189.8536.35356v9.98223c0 .4142.3358.75.75.75s.75-.3358.75-.75z"/></g></svg>

<svg width="24" height="24" viewBox="0 0 24 24" fill="none" xmlns="http://www.w3.org/2000/svg">
<path d="M16 10.75C16 11.1642 16.3383 11.4934 16.7469 11.5617C18.8767 11.9175 20.5 13.7692 20.5 16C20.5 18.4853 18.4853 20.5 16 20.5H8C5.51472 20.5 3.5 18.4853 3.5 16C3.5 13.7692 5.12331 11.9175 7.25314 11.5617C7.66169 11.4934 8 11.1642 8 10.75C8 10.3358 7.66253 9.99508 7.25149 10.0462C4.29103 10.4146 2 12.9398 2 16C2 19.3137 4.68629 22 8 22H16C19.3137 22 22 19.3137 22 16C22 12.9398 19.709 10.4146 16.7485 10.0462C16.3375 9.99508 16 10.3358 16 10.75Z" fill="black"/>
<path d="M12.75 6.01777C12.75 5.57232 13.2886 5.34923 13.6036 5.66421L15.4697 7.53033C15.7626 7.82322 16.2374 7.82322 16.5303 7.53033C16.8232 7.23744 16.8232 6.76256 16.5303 6.46967L12.5303 2.46967C12.2374 2.17678 11.7626 2.17678 11.4697 2.46967L7.46967 6.46967C7.17678 6.76256 7.17678 7.23744 7.46967 7.53033C7.76256 7.82322 8.23744 7.82322 8.53033 7.53033L10.3964 5.66421C10.7114 5.34923 11.25 5.57232 11.25 6.01777V16C11.25 16.4142 11.5858 16.75 12 16.75C12.4142 16.75 12.75 16.4142 12.75 16V6.01777Z" fill="black"/>
</svg>
